img/image/design/quotes.svg

<svg width="38" height="29" viewBox="0 0 38 29" fill="none" xmlns="http://www.w3.org/2000/svg">
<path fill-rule="evenodd" clip-rule="evenodd" d="M6.495 0.581963C4.50091 0.918061 2.79443 2.10536 1.75375 3.88127C-0.710256 8.08588 1.19016 12.9668 5.9475 14.6513C7.02484 15.033 9.47333 15.0338 10.3852 14.6527C11.0974 14.3552 11.1057 14.3569 11.1057 14.8063C11.1057 15.565 10.3331 17.8407 9.59667 19.2502C8.66208 21.0399 6.42809 23.3773 4.34343 24.7465C3.4226 25.3514 2.63967 25.8669 2.6034 25.8923C2.50934 25.9582 4.08161 28.2465 4.32403 28.3964C4.58799 28.5595 6.56501 27.5295 8.35876 26.2945C12.0694 23.7397 14.8998 19.9713 16.1782 15.8834C16.5706 14.6288 16.633 14.029 16.633 11.5198C16.633 8.99119 16.5748 8.44254 16.1889 7.32583C14.5297 2.52563 10.7138 -0.129214 6.495 0.581963ZM27.289 0.560629C25.0046 0.895951 23.1769 2.31656 22.0971 4.59594C21.5397 5.77257 21.4815 6.07026 21.4815 7.74086C21.4815 9.43066 21.5346 9.69422 22.1118 10.8678C23.2142 13.1089 25.2102 14.5216 27.7911 14.8872C29.0872 15.0706 30.7522 14.9097 31.4564 14.5328C31.9721 14.2569 31.9721 14.4103 31.4568 16.2699C30.5154 19.667 28.2196 22.6864 24.9746 24.7953C24.1224 25.3492 23.3879 25.8397 23.3424 25.8853C23.2287 25.9989 24.9315 28.4895 25.1227 28.4895C25.4282 28.4895 27.3315 27.4438 28.7542 26.4945C30.8249 25.1126 33.8717 21.9663 35.0272 20.0169C38.05 14.9172 38.2575 8.70552 35.5439 4.54066C34.0393 2.23123 32.1934 0.976436 29.7073 0.573041C29.023 0.461914 28.4197 0.381429 28.3664 0.393841C28.313 0.406447 27.8282 0.481502 27.289 0.560629Z" fill="white"/>
</svg>

<svg width="38" height="29" fill="none" xmlns="http://www.w3.org/2000/svg"><path fill-rule="evenodd" clip-rule="evenodd" d="M6.495.582c-1.994.336-3.7 1.523-4.741 3.3-2.464 4.204-.564 9.085 4.194 10.77 1.077.381 3.525.382 4.437 0 .712-.297.72-.295.72.154 0 .759-.772 3.035-1.508 4.444-.935 1.79-3.169 4.127-5.254 5.497-.92.604-1.703 1.12-1.74 1.145-.094.066 1.479 2.355 1.721 2.504.264.163 2.241-.867 4.035-2.102 3.71-2.554 6.54-6.323 7.82-10.41.392-1.255.454-1.855.454-4.364 0-2.529-.058-3.077-.444-4.194-1.66-4.8-5.475-7.455-9.694-6.744ZM27.289.561c-2.284.335-4.112 1.756-5.192 4.035-.557 1.177-.616 1.474-.616 3.145 0 1.69.054 1.953.63 3.127 1.103 2.24 3.1 3.654 5.68 4.02 1.296.183 2.961.022 3.665-.355.516-.276.516-.123 0 1.737-.94 3.397-3.236 6.416-6.481 8.525-.853.554-1.587 1.045-1.633 1.09-.113.114 1.59 2.604 1.78 2.604.306 0 2.21-1.045 3.632-1.995 2.07-1.381 5.118-4.528 6.273-6.477 3.023-5.1 3.23-11.311.517-15.476-1.505-2.31-3.35-3.565-5.837-3.968-.684-.111-1.287-.192-1.34-.18a40.92 40.92 0 0 1-1.078.168Z" fill="#fff"/></svg>
